X: 10542
T: Doorus Mill
R: jig
M: 6/8
K: Eminor
|:E/F/|"Em"GEE "D"FDD|"C"ECC "Bm"DEF|"Em"GEE "D"FDD|"Em"FEE E2F|
"Em"GEE "D"FDD|"C"ECC "Bm"DEF|"Em"GAB "D"AFD|"Em" B,EE E2:|
|:F|"Em" ~G2G BAG|"D"DFA cBA|"Em"G2 G "D"AGA|"Bm" Bee "Em"e2f|
"G"dBB "F#m"^cAA|"Em"BGG "D"AFF|"C"EFG "Bm"AFD|"Em"B,EE E2:|
|:B|"Em" eBe gfe|"D"fdf agf|"Em"eBe gfe|"Bm"dBB B2 d|
"Em"eBe gfe|"D"dAd fed|"Em"edB AGA|"Bm"Bee "Em"e2:|
|:f|"G"dBB "F#m"^cAA|"Bm"^cBB B2f|"G"dBB "A"^cAA|"Em"BGE E2 f|
"G"dBB "F#m"^cAA|"Em"BGG "D"AFF|"C"EFG "Bm"AFD|"Em"B,EE E2:|

